!!!SOCIAL_FUNCTION:	songs connected with war and hunting
!!!PDT:	1932
!!!OTL: No_29_I_Will_Find_Game.krn
!!!REG: Wisconsin
!!!LANG: Non-Tone
!!!LING_GROUP: Algonquin
**kern
*staff1
=1-
*clefF4
*k[f#]
*M2/4
4d\
8d\L
8d\J
=2
4d\
8.d\L
16B\Jk
=3||
*M3/4
4A\
8A\L
8G\J
16G\LL
16G\
16E\JJ
16r
=4||
*M2/4
4G\
8G\L
8G\J
=5
4G\
8.G\L
16E\Jk
=6||
*M3/4
4E\
8D\L
8D\J
8D\
8r
=7||
*M2/4
4G\
8G\L
8G\J
=8
4G\
8.G\L
16A\Jk
=9||
*M3/4
4A\
8G\L
8G\J
(16G\LL
16G\)
16E\JJ
16r
=10||
*M2/4
4G\
8G\L
8G\J
=11
4G\
8.G\L
16E\Jk
=12
4E\
8D\L
8D\J
=13
4D\
4D\
=14
4D\
8D\
8r
=15||
*M5/8
4G\
8G\L
8G\
8G\J
=16||
*M2/4
4d\
8d\L
8d\J
=17
4d\
8.d\L
16B\Jk
=18||
*M3/4
4A\
8G\L
8G\J
8G\L
16G\L
16E\JJ
=19||
*M2/4
4G\
8G\L
8G\J
=20
4G\
8.G\L
16E\Jk
=21
4E\
8D\L
8D\J
=22
4D\
4D\
=23
4D\
8D\
8r
==
*-
